usr/share/icons/big-icons/symbolic/status/battery-action-symbolic.svg

<svg width="16px" height="16px" version="1.1" viewBox="0 0 16 16" xmlns="http://www.w3.org/2000/svg">
 <path d="m5.2324 5.7324c-0.12781 0-0.25558 0.04855-0.35351 0.14648-0.19587 0.19587-0.19587 0.51117 0 0.70704l1.4141 1.4141-1.4141 1.4141c-0.19587 0.19587-0.19587 0.51117 0 0.70704 0.19587 0.19587 0.51117 0.19587 0.70704 0l1.4141-1.4141 1.4141 1.4141c0.19587 0.19587 0.51117 0.19587 0.70704 0 0.19587-0.19587 0.19587-0.51117 0-0.70704l-1.4141-1.4141 1.4141-1.4141c0.19587-0.19587 0.19587-0.51117 0-0.70704s-0.51117-0.19587-0.70704 0l-1.4141 1.4141-1.4141-1.4141c-0.097934-0.097934-0.22571-0.14649-0.35351-0.14648z" fill="#d33636" stop-color="#000000" stroke-linecap="round" stroke-linejoin="round" stroke-width="2" style="paint-order:fill markers stroke"/>
 <path d="m2 3c-1.108 0-2 0.892-2 2v6c0 1.108 0.892 2 2 2h11c1.108 0 2-0.892 2-2v-2h1v-2h-1v-2c0-1.108-0.892-2-2-2zm0 1h11c0.554 0 1 0.446 1 1v6c0 0.554-0.446 1-1 1h-11c-0.554 0-1-0.446-1-1v-6c0-0.554 0.446-1 1-1z" fill="#d33636" stroke-linecap="round" stroke-linejoin="round" stroke-width="1.5" style="paint-order:stroke fill markers"/>
</svg>

<svg xmlns="http://www.w3.org/2000/svg" width="16" height="16">
<path fill="#d33636" d="M5.232 5.732a.499.499 0 0 0-.354.854L6.294 8 4.879 9.414a.499.499 0 1 0 .707.707L7 8.707l1.414 1.414a.499.499 0 1 0 .707-.707L7.707 8l1.414-1.414a.499.499 0 1 0-.707-.707L7 7.293 5.586 5.879a.5.5 0 0 0-.354-.147" style="paint-order:fill markers stroke"/>
<path fill="#d33636" d="M2 3C.892 3 0 3.892 0 5v6c0 1.108.892 2 2 2h11c1.108 0 2-.892 2-2V9h1V7h-1V5c0-1.108-.892-2-2-2zm0 1h11c.554 0 1 .446 1 1v6c0 .554-.446 1-1 1H2c-.554 0-1-.446-1-1V5c0-.554.446-1 1-1" style="paint-order:stroke fill markers"/>
</svg>
